Yaru++/apps/scalable/mame.svg

<svg height="256" width="256" xmlns="http://www.w3.org/2000/svg" xmlns:xlink="http://www.w3.org/1999/xlink">
  <linearGradient id="linearGradient4358" gradientUnits="userSpaceOnUse" x1="88" x2="488" y1="88" y2="488">
    <stop offset="0" stop-opacity=".588235"/>
    <stop offset="1" stop-opacity=".205556"/>
  </linearGradient>
  <filter id="filter4380" color-interpolation-filters="sRGB" height="1.088" width="1.106" x="-.05" y="-.04">
    <feGaussianBlur stdDeviation="8.48"/>
  </filter>
  <filter id="filter4346" color-interpolation-filters="sRGB" height="1.022" width="1.026" x="-.01" y="-.01">
    <feGaussianBlur stdDeviation="2.12"/>
  </filter>
  <linearGradient id="linearGradient2151" gradientUnits="userSpaceOnUse" x1="16.016157417" x2="53.0981463927" y1="275.242985325" y2="252.9949131729">
    <stop offset="0" stop-color="#6bcfff"/>
    <stop offset="1" stop-color="#4aa5d2"/>
  </linearGradient>
  <path d="m141.84323 74c-70.59344 0-78.18921 7.250835-77.84323 77.98706v146.01294 146.01294c-.34598 70.73623 7.24979 77.98706 77.84323 77.98706h292.31354c70.59344 0 79.78033-7.27652 77.84323-77.98706v-146.01294-146.01294c0-70.737067-7.24979-77.98706-77.84323-77.98706z" filter="url(#filter4346)" opacity=".1" transform="matrix(.5 0 0 .5 -16.116488 -20.825537)"/>
  <path d="m141.84323 74c-70.59344 0-78.18921 7.250835-77.84323 77.98706v146.01294 146.01294c-.34598 70.73623 7.24979 77.98706 77.84323 77.98706h292.31354c70.59344 0 79.78033-7.27652 77.84323-77.98706v-146.01294-146.01294c0-70.737067-7.24979-77.98706-77.84323-77.98706z" fill="url(#linearGradient4358)" filter="url(#filter4380)" opacity=".3" transform="matrix(.5 0 0 .5 -16.116488 -20.825235)"/>
  <path d="m53.695112 13.174464c-36.098811 0-39.983002 3.690159-39.80608 39.689839v74.310167 74.31016c-.176922 35.99969 3.707269 39.68984 39.80608 39.68984h148.387318c36.09881 0 40.77464-3.70276 39.80608-39.68984v-74.31016-74.310167c0-36.00011-3.70727-39.689839-39.80608-39.689839z" opacity=".2"/>
  <path d="m200.95649 15.174464c35.29673 0 39.09461 3.625419 38.92162 38.993529v73.006477 73.00647c.17299 35.36812-3.62489 38.99353-38.92162 38.99353h-146.156758c-35.296716 0-38.921616-3.625-38.921616-38.99353v-73.00647-73.006477c0-35.36853 3.6249-38.993529 38.921616-38.993529z" fill="#241f31"/>
  <path d="m54.805392 15.174464c-35.296728 0-39.09487 3.626029-38.92188 38.994139v2c-.17299-35.36811 3.625152-38.99414 38.92188-38.99414h146.156238c35.29673 0 38.92188 3.62561 38.92188 38.99414v-2c0-35.36853-3.62515-38.994139-38.92188-38.994139z" fill="#fff" opacity=".3"/>
  <path d="m54.810792 239.17447c-35.296731 0-39.094875-3.62603-38.921885-38.99414v-2c-.17299 35.36811 3.625154 38.99414 38.921885 38.99414h146.156238c35.29673 0 38.92188-3.62561 38.92188-38.99414v2c0 35.36853-3.62515 38.99414-38.92188 38.99414z" opacity=".2"/>
  <g enable-background="new" transform="matrix(3.700536 0 0 3.700536 10.192022 -844.71544)">
    <path d="m39.00611 248.54356-28.182666 28.18268h11.124736l12.608035-12.60804v12.60804l11.866385-11.8664v11.8664l6.734177-6.73419-.05934-21.44849-14.091333 14.09133z" fill="url(#linearGradient2151)" fill-rule="evenodd"/>
    <path d="m39.00611 248.54356-28.182666 28.18268h11.124736l12.608035-12.60804v12.60804l11.866385-11.8664v11.8664l6.734177-6.73419-.05934-21.44849-14.091333 14.09133z" fill="none" stroke="#236c9a" stroke-width=".529167"/>
  </g>
</svg>

<svg xmlns="http://www.w3.org/2000/svg" xmlns:xlink="http://www.w3.org/1999/xlink" width="256" height="256" version="1.0">
 <defs>
  <linearGradient id="a">
   <stop id="stop2" offset="0" stop-color="#68676b"/>
   <stop id="stop4" offset=".8" stop-color="#424048"/>
   <stop id="stop6" offset="1" stop-color="#241f31"/>
  </linearGradient>
  <radialGradient id="d" cx="279.422" cy="446.483" r="224" fx="279.422" fy="446.483" gradientTransform="matrix(1.34416,6e-4,-6.2e-4,1.38763,-121.22,-718.103)" gradientUnits="userSpaceOnUse" xlink:href="#a"/>
  <linearGradient id="e" x1="43.844" x2="-60" y1="234" y2="234" gradientTransform="matrix(1.0015,0,0,0.99993,72.09,56.015)" gradientUnits="userSpaceOnUse" xlink:href="#b"/>
  <linearGradient id="b">
   <stop id="stop11" offset="0" stop-color="#d5d3cf"/>
   <stop id="stop13" offset=".038" stop-color="#e3e2df"/>
   <stop id="stop15" offset=".077" stop-color="#c0bfbc"/>
   <stop id="stop17" offset=".923" stop-color="#c0bfbc"/>
   <stop id="stop19" offset=".962" stop-color="#e3e2df"/>
   <stop id="stop21" offset="1" stop-color="#d5d3cf"/>
  </linearGradient>
  <linearGradient id="linearGradient1007" x1="160.305" x2="161.33" y1="240.139" y2="135.579" gradientTransform="matrix(0.54625232,0,0,0.54625232,-6.0941965,-68.413544)" gradientUnits="userSpaceOnUse" xlink:href="#linearGradient1018"/>
  <linearGradient id="linearGradient1018">
   <stop id="stop2-3" offset="0" style="stop-color:#37a6e6"/>
   <stop id="stop4-6" offset="1" style="stop-color:#1a7fd4"/>
  </linearGradient>
  <clipPath id="clipPath1082-3" clipPathUnits="userSpaceOnUse">
   <path d="M 361.9375,-212 C 507.2348,-212 528,-191.28677 528,-46.125 V 70.125 C 528,215.28618 507.2348,236 361.9375,236 H 214.0625 C 68.7652,236 48,215.28618 48,70.125 V -46.125 C 48,-191.28677 68.7652,-212 214.0625,-212 Z" style="fill:#8c59d9"/>
  </clipPath>
  <linearGradient id="linearGradient4358" x1="88" x2="488" y1="88" y2="488" gradientUnits="userSpaceOnUse" xlink:href="#linearGradient4360"/>
  <linearGradient id="linearGradient4360">
   <stop id="stop4362" offset="0" style="stop-color:#000000;stop-opacity:0.58823532"/>
   <stop id="stop4366" offset="1" style="stop-color:#000000;stop-opacity:0.20555556"/>
  </linearGradient>
  <filter style="color-interpolation-filters:sRGB" id="filter4380" width="1.106" height="1.088" x="-.05" y="-.04">
   <feGaussianBlur id="feGaussianBlur4382" stdDeviation="8.48"/>
  </filter>
  <filter style="color-interpolation-filters:sRGB" id="filter4346" width="1.026" height="1.022" x="-.01" y="-.01">
   <feGaussianBlur id="feGaussianBlur4348" stdDeviation="2.12"/>
  </filter>
  <radialGradient id="radialGradient1030" cx="64" cy="194.19" r="44" gradientTransform="matrix(-4.7273,7.9359e-7,-3.0301e-7,-1.6364,406.68559,219.93549)" gradientUnits="userSpaceOnUse">
   <stop id="stop1016" offset="0" style="stop-color:#fff"/>
   <stop id="stop1018" offset="1" style="stop-color:#fff;stop-opacity:.094118"/>
  </radialGradient>
  <linearGradient id="linearGradient2151" x1="22.49" x2="35.719" y1="265.25" y2="257.313" gradientTransform="matrix(2.8030833,0,0,2.8030833,-47.025186,-468.27486)" gradientUnits="userSpaceOnUse">
   <stop style="stop-color:#6bcfff" id="stop20" offset="0"/>
   <stop style="stop-color:#4aa5d2" id="stop22" offset="1"/>
  </linearGradient>
 </defs>
 <path style="opacity:0.1;filter:url(#filter4346)" d="M 141.84323,74 C 71.24979,74 63.65402,81.250835 64,151.98706 V 298 444.01294 C 63.65402,514.74917 71.24979,522 141.84323,522 H 434.15677 C 504.75021,522 513.9371,514.72348 512,444.01294 V 298 151.98706 C 512,81.249993 504.75021,74 434.15677,74 Z" transform="matrix(0.5,0,0,0.5,-16.116488,-20.825537)"/>
 <path d="M 141.84323,74 C 71.24979,74 63.65402,81.250835 64,151.98706 V 298 444.01294 C 63.65402,514.74917 71.24979,522 141.84323,522 H 434.15677 C 504.75021,522 513.9371,514.72348 512,444.01294 V 298 151.98706 C 512,81.249993 504.75021,74 434.15677,74 Z" transform="matrix(0.5,0,0,0.5,-16.116488,-20.825235)" style="opacity:0.3;fill:url(#linearGradient4358);filter:url(#filter4380)"/>
 <path style="opacity:0.2" d="m 53.695112,13.174464 c -36.098811,0 -39.983002,3.690159 -39.80608,39.689839 v 74.310167 74.31016 c -0.176922,35.99969 3.707269,39.68984 39.80608,39.68984 H 202.08243 c 36.09881,0 40.77464,-3.70276 39.80608,-39.68984 V 127.17447 52.864303 c 0,-36.00011 -3.70727,-39.689839 -39.80608,-39.689839 z"/>
 <path style="fill:#241f31" d="m 200.95649,15.174464 c 35.29673,0 39.09461,3.625419 38.92162,38.993529 v 73.006477 73.00647 c 0.17299,35.36812 -3.62489,38.99353 -38.92162,38.99353 H 54.799732 c -35.296716,0 -38.921616,-3.625 -38.921616,-38.99353 V 127.17447 54.167993 c 0,-35.36853 3.6249,-38.993529 38.921616,-38.993529 z"/>
 <path style="opacity:0.3;fill:#ffffff" d="m 54.805392,15.174464 c -35.296728,0 -39.09487,3.626029 -38.92188,38.994139 v 2 c -0.17299,-35.36811 3.625152,-38.99414 38.92188,-38.99414 H 200.96163 c 35.29673,0 38.92188,3.62561 38.92188,38.99414 v -2 c 0,-35.36853 -3.62515,-38.994139 -38.92188,-38.994139 z"/>
 <path style="opacity:0.2" d="m 54.810792,239.17447 c -35.296731,0 -39.094875,-3.62603 -38.921885,-38.99414 v -2 c -0.17299,35.36811 3.625154,38.99414 38.921885,38.99414 H 200.96703 c 35.29673,0 38.92188,-3.62561 38.92188,-38.99414 v 2 c 0,35.36853 -3.62515,38.99414 -38.92188,38.99414 z"/>
 <g style="enable-background:new" transform="matrix(3.700536,0,0,3.700536,10.192022,-844.71544)">
  <path style="fill:url(#linearGradient2151);fill-rule:evenodd" d="M 39.00611,248.54356 10.823444,276.72624 H 21.94818 L 34.556215,264.1182 v 12.60804 L 46.4226,264.85984 v 11.8664 l 6.734177,-6.73419 -0.05934,-21.44849 -14.091333,14.09133 z"/>
  <path style="fill:none;stroke:#236c9a;stroke-width:0.5291667" d="M 39.00611,248.54356 10.823444,276.72624 H 21.94818 L 34.556215,264.1182 v 12.60804 L 46.4226,264.85984 v 11.8664 l 6.734177,-6.73419 -0.05934,-21.44849 -14.091333,14.09133 z"/>
 </g>
</svg>
